X:1
T:Clock
O:Stanton Harcourt
R:reel
M:4/4
L:1/4
K:G
z/D/ | G F/G/ A G/A/ | B   c/B/ A B/A/ | G2     F2     | G3     :|
B/c/ | d B/A/ G F/G/ | A/G/F/E/ D B/c/ | d B/A/ G F/G/ | A3 z/D/ | 
       G F/G/ A G/A/ | B   c/B/ A B/A/ | G2     F2     | G3     |]
</abc>
